X:1
T:Title
%%score ( 1 2 ) ( 3 4 )
L:1/8
M:3/4
K:G
V:1 treble nm="Grand Piano, Unnamed-000"
V:2 treble 
V:3 bass nm="Choir Pad, Martyrdom, CM"
V:4 bass 
V:1
 [B,D]2 [B,G]4 | [CE]2 [B,D]4 | [DG][EA] [DB]4 | [CA]2 [B,G]4 | [DB]2 [Gd]4 | BA [DG]4 | %6
w: By~Hugh~Wilson,~1800 *||||||
 [DB]2 [DA]4- | [DA]4 [Dd]2 | [DB]4 [CA]2 | [B,G]4 [=FB]2 | [Ec]4 [DB]2 | [DA]4 [DB]2 | %12
w: ||||||
 D2 [CE]2 [DG][EA] | [DB]4 [CA]2 | [B,G]6- | [B,G]2 z2 z2 |] %16
w: ||||
V:2
 x6 | x6 | x6 | x6 | x6 | D2 z2 z2 | x6 | x6 | x6 | x6 | x6 | x6 | x6 | x6 | x6 | x6 |] %16
V:3
 [G,,G,]2 [G,,D,]4 | [G,,G,]2 [G,,G,]4 | G,2 z2 z2 | [D,F,]2 [G,,G,]4 | G,2 [G,B,]4 | %5
 [G,,G,][A,,F,] [B,,G,]4 | [G,,G,]2 [D,F,]4- | [D,F,]4 [F,A,]2 | G,4 [D,F,]2 | [E,G,]4 [D,G,]2 | %10
 [C,G,]4 [G,,G,]2 | [D,F,]4 [G,,G,]2 | G,4 G,2 | G,4 [D,F,]2 | [G,,G,]6- | [G,,G,]2 z2 z2 |] %16
V:4
 x6 | x6 | B,,C, [D,G,]4 | x6 | x6 | x6 | x6 | x6 | x6 | x6 | x6 | x6 | B,,2 C,2 B,,C, | x6 | x6 | %15
 x6 |] %16

